src/assets/imgs/platform-5.svg

<svg width="63" height="61" viewBox="0 0 63 61" fill="none" xmlns="http://www.w3.org/2000/svg">
<mask id="mask0_28_122" style="mask-type:luminance" maskUnits="userSpaceOnUse" x="0" y="0" width="63" height="61">
<path d="M62.372 0.947266H0.904785V60.8015H62.372V0.947266Z" fill="white"/>
</mask>
<g mask="url(#mask0_28_122)">
<path d="M57.6549 29.4262V4.96514C57.6549 2.74458 55.8043 0.947266 53.5301 0.947266H7.89676C5.62255 0.947266 3.77197 2.74458 3.77197 4.96514V49.3946C3.77197 51.6109 5.62255 53.4129 7.89676 53.4129H15.1842C15.9302 54.0602 16.714 54.6745 17.527 55.2516C22.6722 58.8833 28.7094 60.8013 35.0072 60.8013C36.5851 60.8013 38.1818 60.6802 39.7494 60.4381C44.9993 59.6279 49.7038 57.16 53.2523 53.4129H53.5301C55.806 53.4129 57.6549 51.6105 57.6549 49.3946V46.7875C59.3528 42.8999 59.9068 38.6118 59.2088 34.3382C58.9275 32.6108 58.3975 30.9629 57.6549 29.4262ZM9.87768 42.9608L11.7506 43.0582L10.7095 44.6088C10.4128 44.0682 10.1349 43.5191 9.87768 42.9608ZM18.8322 53.5849C18.8185 53.5751 18.803 53.5662 18.7893 53.5616C18.1341 53.0915 17.5081 52.6027 16.901 52.0906L19.2763 51.2757L18.8322 53.5849ZM28.0268 57.8215L29.5943 56.0522L30.4073 58.3289C29.6046 58.1937 28.8106 58.0217 28.0268 57.8215ZM40.4474 58.1891L41.3667 55.6799L42.9634 57.5145C42.1402 57.7843 41.3084 58.0122 40.4474 58.1891ZM52.8029 50.7027L51.1153 52.4301L50.3212 49.7954L53.0173 50.4281C52.9453 50.5213 52.8784 50.6144 52.8029 50.7027ZM53.5679 49.702L49.0777 48.6405L50.4498 53.1894C48.5135 54.9211 46.2719 56.2803 43.8227 57.2068L41.0494 54.0362L39.4715 58.3616C39.4527 58.3661 39.4338 58.3661 39.4149 58.371C37.9519 58.599 36.4701 58.7108 35.0072 58.7108C33.7775 58.7108 32.5683 58.6129 31.3626 58.4592L29.9099 54.4088L27.1126 57.5696C24.4679 56.7969 21.945 55.6284 19.6108 54.0874L20.3946 50.0043L16.1686 51.4519C14.2083 49.6737 12.5343 47.6438 11.1914 45.423L13.2804 42.3032L9.48492 42.0985C8.65825 40.1522 8.05628 38.0898 7.7064 35.9578C5.73576 23.8902 10.3064 11.888 19.9367 3.78708L22.2212 2.11092H41.7629L35.839 3.78708C22.2846 7.61397 13.4245 20.8037 15.6918 34.7243C16.5133 39.7616 19.3055 44.1842 23.5418 47.1828C26.9223 49.5713 30.8909 50.8325 35.026 50.8325C36.0636 50.8325 37.1098 50.7535 38.144 50.5911C44.1383 49.6689 49.2699 44.012 49.3419 38.244C49.3796 35.6784 48.4226 33.3645 46.5823 31.5491C44.2155 29.2164 40.4577 27.8198 36.537 27.8198C34.7962 27.8198 33.124 28.0851 31.5461 28.616C31.1825 28.7367 30.8241 28.8022 30.5033 28.8022C29.6046 28.8022 29.38 28.341 29.2753 27.8943C29.0026 26.6932 30.5599 25.1753 31.0779 24.6771C31.2202 24.5377 31.354 24.4027 31.4689 24.277C33.3435 22.6706 35.628 21.6184 38.096 21.2368C42.4558 20.5664 46.8739 21.5953 50.4498 24.1233C54.0361 26.656 56.3943 30.3993 57.0872 34.6637C57.9568 39.9762 56.6996 45.2978 53.5679 49.702Z" fill="#8A8A8E"/>
<path d="M37.2543 22.0566C35.9062 22.0566 34.8154 23.1227 34.8154 24.431C34.8154 25.7437 35.9062 26.81 37.2543 26.81C38.6023 26.81 39.6931 25.7437 39.6931 24.431C39.6931 23.1226 38.6023 22.0566 37.2543 22.0566ZM37.2543 25.9722C36.3847 25.9722 35.6764 25.2831 35.6764 24.4312C35.6764 23.5838 36.3847 22.8948 37.2543 22.8948C38.1255 22.8948 38.8321 23.5838 38.8321 24.4312C38.8321 25.2829 38.1255 25.9722 37.2543 25.9722Z" fill="#8A8A8E"/>
</g>
</svg>

<svg width="63" height="61" fill="none" xmlns="http://www.w3.org/2000/svg"><mask id="a" style="mask-type:luminance" maskUnits="userSpaceOnUse" x="0" y="0" width="63" height="61"><path d="M62.372.947H.905v59.855h61.467V.947z" fill="#fff"/></mask><g mask="url(#a)" fill="#8A8A8E"><path d="M57.655 29.426V4.966c0-2.221-1.85-4.019-4.125-4.019H7.897c-2.274 0-4.125 1.798-4.125 4.018v44.43c0 2.216 1.85 4.018 4.125 4.018h7.287A30.14 30.14 0 0 0 35.007 60.8a31.18 31.18 0 0 0 4.742-.363c5.25-.81 9.955-3.278 13.503-7.025h.278c2.276 0 4.125-1.802 4.125-4.018v-2.608a22.088 22.088 0 0 0 1.554-12.449 17.882 17.882 0 0 0-1.554-4.912zM9.878 42.961l1.873.097-1.041 1.55a26.29 26.29 0 0 1-.832-1.647zm8.954 10.624a.174.174 0 0 0-.043-.023 30.475 30.475 0 0 1-1.888-1.471l2.375-.815-.444 2.309zm9.195 4.236 1.567-1.769.813 2.277a29.263 29.263 0 0 1-2.38-.508zm12.42.368.92-2.51 1.596 1.835c-.823.27-1.655.498-2.516.675zm12.356-7.486-1.688 1.727-.794-2.635 2.696.633c-.072.093-.139.186-.214.275zm.765-1.001-4.49-1.061 1.372 4.548a21.154 21.154 0 0 1-6.627 4.018l-2.774-3.17-1.578 4.325c-.018.004-.037.004-.056.009a28.7 28.7 0 0 1-4.408.34c-1.23 0-2.439-.098-3.644-.252l-1.453-4.05-2.797 3.16a27.705 27.705 0 0 1-7.502-3.482l.784-4.083-4.226 1.448a27.023 27.023 0 0 1-4.978-6.029l2.09-3.12-3.796-.204a26.828 26.828 0 0 1-1.779-6.141c-1.97-12.068 2.6-24.07 12.23-32.17l2.285-1.677h19.542l-5.924 1.676C22.285 7.614 13.425 20.804 15.692 34.724c.821 5.038 3.613 9.46 7.85 12.459a19.793 19.793 0 0 0 11.484 3.65c1.038 0 2.084-.08 3.118-.242 5.994-.922 11.126-6.579 11.198-12.347.038-2.566-.92-4.88-2.76-6.695-2.367-2.333-6.124-3.73-10.045-3.73-1.74 0-3.413.266-4.99.797-.364.12-.723.186-1.044.186-.898 0-1.123-.461-1.228-.908-.272-1.2 1.285-2.719 1.803-3.217.142-.14.276-.274.39-.4a13.278 13.278 0 0 1 6.628-3.04c4.36-.67 8.778.358 12.354 2.886 3.586 2.533 5.944 6.276 6.637 10.54.87 5.313-.387 10.635-3.52 15.039z"/><path d="M37.254 22.057c-1.348 0-2.439 1.066-2.439 2.374 0 1.313 1.091 2.379 2.44 2.379 1.347 0 2.438-1.066 2.438-2.379 0-1.308-1.09-2.374-2.439-2.374zm0 3.915c-.87 0-1.578-.689-1.578-1.54 0-.848.709-1.537 1.578-1.537.872 0 1.578.689 1.578 1.536 0 .852-.706 1.541-1.578 1.541z"/></g></svg>
